data/styles/clear/style-clear/symbols/fountain-m.svg

<svg height="24" viewBox="0 0 24 24" width="24"><g fill="none" fill-rule="evenodd"><circle cx="12" cy="12" fill="#fff" opacity=".6" r="12"/><g fill="#14a0c2"><circle cx="12" cy="12" opacity="0" r="11"/><path d="m11.1899351 15.5666733c-2.88980836-.1421858-5.18993527-2.0613622-5.1899351-4.5610685h5.5147445l-.8875763-3.06119406c-.1483667-.67166001-.81802179-1.09671053-1.4896818-.94633888-.58344198.12831714-.97440826.64359064-.97440826 1.21700784l-.12059643.00000011.12059643-.00000011.00000007.84608039-2.09347241.0000001-.00000007-1.21499215c0-1.49569663 1.27028872-2.8346529 2.76398039-2.8346529 1.48897028 0 2.75594768 1.33050493 2.76394238 2.82047428.0079033-1.49004182 1.2604655-2.83198942 2.7494359-2.83198942 1.4956966 0 2.7494736 1.35047131 2.7494736 2.84616794v1.20038949h-2.0624538v-.83348268c0-.57141225-.3929713-1.08869071-.9764132-1.21500289-.67166-.15037165-1.3413151.27467887-1.4896818.94633888l-.8875763 3.06119406h5.3489458c0 2.4653692-2.2045198 4.3660478-5.0315478 4.5542063l3.0661286 2.4741913h-6.93152887z"/></g></g></svg>

<svg width="24" height="24" viewBox="0 0 24 24">
  <g fill="none" fill-rule="evenodd">
    <circle cx="12" cy="12" r="12" fill="#FFF" opacity=".6"/>
    <circle cx="12" cy="12" r="11" fill="#14A0C2" opacity="0"/>
    <path fill="#14A0C2" d="M11.1899351,15.5666733 C8.30012674,15.4244875 5.99999983,13.5053111 6,11.0056048 L11.5147445,11.0056048 L10.6271682,7.94441074 C10.4788015,7.27275073 9.80914641,6.84770021 9.1374864,6.99807186 C8.55404442,7.126389 8.16307814,7.6416625 8.16307814,8.2150797 L8.04248171,8.21507981 L8.16307814,8.2150797 L8.16307821,9.06116009 L6.0696058,9.06116019 L6.06960573,7.84616804 C6.06960573,6.35047141 7.33989445,5.01151514 8.83358612,5.01151514 C10.3225564,5.01151514 11.5895338,6.34202007 11.5975285,7.83198942 C11.6054318,6.3419476 12.857994,5 14.3469644,5 C15.842661,5 17.096438,6.35047131 17.096438,7.84616794 L17.096438,9.04655743 L15.0339842,9.04655743 L15.0339842,8.21307475 C15.0339842,7.6416625 14.6410129,7.12438404 14.057571,6.99807186 C13.385911,6.84770021 12.7162559,7.27275073 12.5678892,7.94441074 L11.6803129,11.0056048 L17.0292587,11.0056048 C17.0292587,13.470974 14.8247389,15.3716526 11.9977109,15.5598111 L15.0638395,18.0340024 L8.13231063,18.0340024 L11.1899351,15.5666733 Z"/>
  </g>
</svg>
